X: 394
T: Prince of Wirtemburg's Waltz
%R: waltz
Z: 2014 John Chambers <jc:trillian.mit.edu>
B: Preston "Twenty four Country Dances for the Year 1800" p.177 #2
F: http://www.vwml.org/browse/browse-collections-dance-tune-books/browse-prestons1800# 2014-8-10
N: The rhythms aren't correct at the strain boundaries.
M: 3/8
L: 1/16
K: Bb
F2 |\
(B2d2)F2 | d2f2F2 | c2ecA2 | (B2d2)F2 |\
B2d2F2 | d2f2F2 | c2ecA2 | B4 :|
|:\
AcecA2 | BdfdB2 | AcecA2 | (G2d2)F2 |\
AcecA2 | BdfdB2 | AcecA2 | B3 :|
% - - - - - - - - - - - - - - - - - - - - - - - - -
%%begintext align
%% 1st & 2d Cu: take both hands with Partners
%% and lead round into each others places .|
%% lead back again to your proper places :|
%% lead down the middle up again :|. Allemand :|:
%%endtext
% - - - - - - - - - - - - - - - - - - - - - - - - -

%%sep 1 1 500
%%sep 1 1 500
